assets/gcpartifactregistry/original.svg

<svg height="24" width="24" xmlns="http://www.w3.org/2000/svg"><path d="m0 0h24v24h-24z" fill="none"/><g fill-rule="evenodd"><path d="m6 2.4-5.2 3v13.7l5.2 3v-2.6l-3-1.7v-11.1l3-1.7z" fill="#5c85de"/><path d="m.8 8v8.5l2.2 1.3v-11.1z" fill="#3367d6"/><path d="m.8 8 2.2-.5v-.8z" fill="#3367d6"/><path d="m18 2.4v2.6l3 1.7v11.1l-3 1.7v2.6l5.2-3v-13.7z" fill="#5c85de"/><path d="m21 17.8 2.2-1.3v-8.5l-2.2-1.3z" fill="#3367d6"/><path d="m21 7.5 2.2.5-2.2-1.3zm0 9.6v.7l2.2-1.3z" fill="#3367d6"/><g><path d="m12 5.5-3 1.6 3 1.6 3-1.6z" fill="#5c85de"/><path d="m12.4 12.4 2.9-1.6v-3.1l-2.9 1.6zm-.7-3.1-3-1.6v3.1l3 1.6z" fill="#3367d6"/><path d="m8.56 11.376-2.9 1.6 2.9 1.6 2.8-1.6z" fill="#5c85de"/><path d="m8.76 18.276 2.9-1.6v-3.2l-2.9 1.6zm-.5-3.2-2.9-1.6v3.2l2.9 1.6z" fill="#3367d6"/><path d="m15.52 11.376-2.9 1.6 2.9 1.6 2.9-1.6z" fill="#5c85de"/><path d="m15.82 18.276 2.9-1.6v-3.2l-2.9 1.6zm-.6-3.2-2.9-1.6v3.2l2.9 1.6z" fill="#3367d6"/></g></g></svg>

<svg xmlns="http://www.w3.org/2000/svg" xml:space="preserve" width="24" height="24" baseProfile="tiny" overflow="visible"><path fill="none" d="M0 0h24v24H0z"/><path fill="#5c85de" fill-rule="evenodd" d="m6 2.4-5.2 3v13.7l5.2 3v-2.6l-3-1.7V6.7L6 5z"/><path fill="#3367d6" fill-rule="evenodd" d="M.8 8v8.5L3 17.8V6.7z"/><path fill="#3367d6" fill-rule="evenodd" d="M.8 8 3 7.5v-.8z"/><path fill="#5c85de" fill-rule="evenodd" d="M18 2.4V5l3 1.7v11.1l-3 1.7v2.6l5.2-3V5.4z"/><path fill="#3367d6" fill-rule="evenodd" d="m21 17.8 2.2-1.3V8L21 6.7z"/><path fill="#3367d6" fill-rule="evenodd" d="m21 7.5 2.2.5L21 6.7zm0 9.6v.7l2.2-1.3z"/><g fill-rule="evenodd"><path fill="#5c85de" d="M12 5.5 9 7.1l3 1.6 3-1.6z"/><path fill="#3367d6" d="m12.4 12.4 2.9-1.6V7.7l-2.9 1.6zm-.7-3.1-3-1.6v3.1l3 1.6z"/><path fill="#5c85de" d="m8.56 11.376-2.9 1.6 2.9 1.6 2.8-1.6z"/><path fill="#3367d6" d="m8.76 18.276 2.9-1.6v-3.2l-2.9 1.6zm-.5-3.2-2.9-1.6v3.2l2.9 1.6z"/><path fill="#5c85de" d="m15.52 11.376-2.9 1.6 2.9 1.6 2.9-1.6z"/><path fill="#3367d6" d="m15.82 18.276 2.9-1.6v-3.2l-2.9 1.6zm-.6-3.2-2.9-1.6v3.2l2.9 1.6z"/></g></svg>
